Gruvbox-Material-Icons/actions/symbolic/ymuse-now-playing-symbolic.svg

<svg width="16" height="16" version="1.1" viewBox="0 0 16 16" xmlns="http://www.w3.org/2000/svg">
  <defs>
    <style id="current-color-scheme" type="text/css">.ColorScheme-Text { color:#ebdbb2; } .ColorScheme-Highlight { color:#458588; }</style>
  </defs>
  <path class="ColorScheme-Text" d="m10 1v8.189c-0.32-0.12-0.64-0.1895-1-0.1895-1.66 0-3 1.34-3 3s1.34 3 3 3 3-1.34 3-3v-7h3v-4h-5zm-9 2v8l7-4-7-4z" fill="currentColor"/>
</svg>

<svg width="16" height="16" version="1.1" viewBox="0 0 16 16" xmlns="http://www.w3.org/2000/svg">
  <defs>
    <style type="text/css">.ColorScheme-Text { color:#ebdbb2; } .ColorScheme-Highlight { color:#458588; }</style>
  </defs>
 <path class="ColorScheme-Text" fill="currentColor" d="M 10 1 L 10 9.1894531 C 9.68 9.0694531 9.36 9 9 9 C 7.34 9 6 10.34 6 12 C 6 13.66 7.34 15 9 15 C 10.66 15 12 13.66 12 12 L 12 5 L 15 5 L 15 1 L 10 1 z M 1 3 L 1 11 L 8 7 L 1 3 z"/>
</svg>
